static/images/arrow-read-more.svg

<svg width="19" height="15" viewBox="0 0 19 15" fill="none" xmlns="http://www.w3.org/2000/svg">
<path d="M11.6484 14.0957L11.4727 13.8955L10.8125 13.1455L10.6572 12.9697L15.6465 7.98047L-0.249999 7.98047L-0.249999 6.48047L15.6465 6.48047L10.6572 1.49121L10.8125 1.31543L11.4727 0.565429L11.6484 0.365234L18.5137 7.23047L11.6484 14.0957Z" fill="#0BA6E2" stroke="#0BA6E2" stroke-width="0.5"/>
</svg>

<svg xmlns="http://www.w3.org/2000/svg" width="19" height="15" fill="none" viewBox="0 0 19 15"><path fill="#0ba6e2" stroke="#0ba6e2" stroke-width=".5" d="m11.6 14.1-.1-.2-.7-.8-.1-.1 5-5h-16V6.5h16l-5-5 .1-.2.7-.7.1-.2 7 6.8z"/></svg>
